X:1
T:Title
%%score { ( 1 3 ) | ( 2 4 ) }
L:1/8
Q:1/4=100
M:4/4
K:G
V:1 treble nm="Grand Piano"
V:3 treble 
V:2 bass 
V:4 bass 
V:1
 BAGF AGDG | z4 F4 | cBA^G BAFD | E2 D2 z2 B,2 | BAGF AGD^D | z4 c4 | dBGc B2 A2 | G6 z2 | %8
w: Grant~Colfax~Tullar * * * * * * *||||||||
 z4 [FB]4 | z4 [DB]4 | [DB]B[FB][GB] [AB]2 [GB]2 | z4 [Fc]4 | z4 [Ec]4 | z4 [Fc]4 | %14
w: ||||||
 [Gc]c[Ec][Fc] [Gc]2 [Fc]2 | z4 [DB]4 | z4 [FB]4 | z4 [DB]4 | [Bd]d[Gd][Fd] [Ad]2 [Gd]2 | %19
w: |||||
 z4 [Ec]4 | z4 [Ac]4 | z4 [GB]4 | [Fc]c[Ec][Fc] [Bd]2 [Ac]2 | [B,GB]6 z2 |] %24
w: |||||
V:2
 G,,2 [D,G,B,]2 [D,G,B,]2 [D,G,B,]2 | B,,2 [D,F,C]2 [D,F,C]2 [D,F,]2 | %2
 D,,2 [D,F,C]2 [D,F,C]2 [D,F,C]2 | G,,2 [D,G,B,]2 [D,G,B,]2 [D,G,]2 | %4
 G,,2 [D,G,B,]2 [D,G,B,]2 [D,G,B,]2 | C,,2 [E,A,C]2 [E,A,C]2 [E,A,]2 | %6
 D,,2 [D,G,B,]2 [D,F,C]2 [D,F,C]2 | G,,2 D,2 D,2 z2 | G,,2 [D,G,B,]2 [D,G,B,]2 D,2 | %9
 G,,2 [D,G,B,]2 [D,G,B,]2 D,2 | z E [D,G,B,]2 [D,G,B,]2 [D,G,B,]2 | A,,2 [D,F,C]2 [D,F,C]2 D,2 | %12
 D,,2 [D,F,C]2 [D,F,C]2 D,2 | D,,2 [D,F,C]2 [D,F,C]2 D,2 | z F [D,F,C]2 [D,F,C]2 [D,F,C]2 | %15
 G,,2 [D,G,B,]2 [D,G,B,]2 D,2 | G,,2 [D,G,B,]2 [D,G,B,]2 D,2 | G,,2 [D,G,B,]2 [D,G,B,]2 D,2 | %18
 z A [D,G,B,]2 [D,F,B,]2 [D,G,B,]2 | C,2 [E,G,C]2 [E,G,C]2 E,2 | C,2 [E,G,C]2 [E,G,C]2 E,2 | %21
 G,,2 [D,G,B,]2 [D,G,B,]2 D,2 | z A [D,F,C]2 [D,F,C]2 [D,F,C]2 | [G,,D,]6 z2 |] %24
V:3
 x8 | G2 F2 z2 C2 | x8 | z4 D4 | x8 | E2 A2 z2 C2 | x8 | z2 [G,B,]2 [G,B,]2 z2 | %8
 [DB]2 [GB]2 z2 [G,B,]2 | [EB]2 [GB]2 z2 [G,B,]2 | x8 | [Gc]2 [Fc]2 z2 [F,C]2 | %12
 [Fc]2 [Ac]2 z2 [F,C]2 | [Ec]2 [Gc]2 z2 [F,C]2 | x8 | [Ec]2 [DB]2 z2 [G,B,]2 | %16
 [DB]2 [GB]2 z2 [G,B,]2 | [EB]2 [GB]2 z2 [G,B,]2 | x8 | [Fd]2 [Ec]2 z2 [G,C]2 | %20
 [Ec]2 [Bd]2 z2 [G,C]2 | [DB]2 [Ac]2 z2 [G,B,]2 | x8 | x8 |] %24
V:4
 x8 | x8 | x8 | x8 | x8 | x8 | x8 | x8 | x8 | x8 | G,,2 z2 z4 | x8 | x8 | x8 | D,,2 z2 z4 | x8 | %16
 x8 | x8 | B,,2 z2 z4 | x8 | x8 | x8 | A,,2 z2 z4 | x8 |] %24

